X:1707
T:Lucy Campbell
%
P:Hon. Mrs Campbell (of Lochnell)
C:R. Mackintosh
R:Reel (8x32)
B:RSCDS 17-7(I)
Z:Anselm Lingnau <anselm@strathspey.org>
M:2/2
L:1/8
K:C
G |\
"C"c2Gc ECGE | c2ec dDDB | "F"c2AF "C"EGCE | "G7"FDG,G "C"ECCG | 
"C"c2Gc ECGE | c2ec dDDB | "F"c2AF "C"GcEc | "G7"defd "C"ecc || 
G |\
"C"ECEG "F"AFAC | "Am"ECFE "G"DG,G,F | "C"ECEG "F"AFAc | "G"BdGf "C"eccG | 
"C"ECEG "F"AFAC | "Am"ECFE "G"DG,G,F | "C"EG"Dm"FA "Em"GB"F"Ac | "G"Bagf "C"ecc |] 
%
P: Miss Condie's Reel
C: D.McKercher
R: reel
B: RSCDS 17-7(II)
Z: 1997 by John Chambers <jc:trillian.mit.edu>
M: 2/2
L: 1/8
K: G
B \
| "G"G2B,D "Em"EFGB | "D7"AD"(G)"BD "(D7)"cDBD | "G"GDB,D "Em"EFGB | "D7"ADFA "G"G2GB |
| "G"G2B,D "Em"EFGB | "D7"AD"(G)"BD "(D7)"cD"(G)"Bd | "C"ecc2 "G"dBGB | "D7"ADFA "G"G2G ||
|| B \
| "G"d2dB "C"g2ge | "G"dBgB dBBg | "Em"gbge "D"afdf | "A7"eA^cA "D"d2dg |
| "D"fadf "G"BcdB | "C"ecc2 "G"dBGB | G2B,D "Em"EFGB | "D7"ADFA "G"G2G |]
